X: 39727
T: Tha Buaidh Air An Uisge Bheatha
R: slide
M: 12/8
K: Cmajor
c2|d4 A2 A3 G F2|G4 E2 D4 D2|E2 G4 A4 A2|c4 B2 A4 c2|d4 A2 A3 G F2|G4 E2 D4 D2|E4 G2 A4 A2|B2 A4 A4 A2||
c2 B4 A3 G E2|G4 E2 D4 D2|E2 G4 A4 A2|c4 B2 A4 c2|d4 A2 A3 G F2|G4 E2 D6|E2 G4 A4 A2|B2 A4 A6||

